X: 43273
T: Wonderwomen
R: reel
M: 4/4
K: Amajor
|:AeeA eage|cefe dcBA|dDDd dcAE|FAcd B2 dc|
AeeA eage|cefa ge c2|-ceBA A2 FA|1 BBAF ddcB:|2 B3 e fefg||
M:3/2
|:aeea eefa ge c2|aeea eefa gece|
fcce Bcef ecBA|fcce Bcef fefg|
aeea eefa ge c2|aeea eedc dcBA|
FFEF A2 EF AB c2|1 d2 cA F2 cd ef g2:|2 d2 cA F2 d2 cBAG||

